x-pack/platform/plugins/shared/content_connectors/public/assets/icons/crawler.svg

<svg width="32" height="32" viewBox="0 0 32 32" fill="none" xmlns="http://www.w3.org/2000/svg">
<path fill-rule="evenodd" clip-rule="evenodd" d="M14.9999 2.57744V1.57734L15.9999 1L16.9999 1.57736V2.57726L27.1244 8.42263L27.9903 7.92268L28.9903 8.5V9.65477L28.1244 10.1547V21.8453L28.9903 22.3452V23.5L27.9904 24.0773L27.1244 23.5774L16.9999 29.4227V30.4226L15.9999 31L14.9999 30.4227V29.4226L4.87569 23.5773L4.00958 24.0774L3.00952 23.5V22.3454L3.87573 21.8453V10.1547L3.00952 9.65462V8.5L4.00959 7.92261L4.87571 8.42266L14.9999 2.57744ZM16.9999 10.5772L20.1962 12.4226L21.6603 11.5773L16.9999 8.88665V10.5772ZM21.1963 14.1546V17.8453L22.6604 18.6906V13.3094L21.1963 14.1546ZM20.1962 19.5774L16.9999 21.4228V23.1133L21.6603 20.4227L20.1962 19.5774ZM14.9999 21.4225L11.8039 19.5773L10.3398 20.4226L14.9999 23.1131V21.4225ZM10.804 17.8452V14.1547L9.33984 13.3094V18.6905L10.804 17.8452ZM11.8039 12.4227L14.9999 10.5775V8.88685L10.3398 11.5774L11.8039 12.4227ZM23.6603 10.4226L16.9999 6.57725V4.88666L25.1244 9.57733L23.6603 10.4226ZM24.6604 19.8453V12.1547L26.1244 11.3094V20.6906L24.6604 19.8453ZM16.9999 25.4228L23.6603 21.5774L25.1244 22.4227L16.9999 27.1133V25.4228ZM8.3398 21.5773L14.9999 25.4226V27.1132L6.87569 22.4226L8.3398 21.5773ZM7.33984 12.1547V19.8452L5.87573 20.6906V11.3094L7.33984 12.1547ZM14.9999 6.57745L8.33981 10.4227L6.87571 9.57736L14.9999 4.88684V6.57745ZM12.804 14.1547L16.0001 12.3094L19.1963 14.1547V17.8453L16.0001 19.6906L12.804 17.8453V14.1547Z" fill="#535766"/>
<path d="M16 14L17.7321 15V17L16 18L14.2679 17V15L16 14Z" fill="#00BFB3"/>
</svg>

<svg xmlns="http://www.w3.org/2000/svg" width="32" height="32" fill="none"><path fill="#535766" fill-rule="evenodd" d="M15 2.577v-1L16 1l1 .577v1l10.124 5.846.866-.5 1 .577v1.155l-.866.5v11.69l.866.5V23.5l-1 .577-.866-.5L17 29.423v1L16 31l-1-.577v-1L4.876 23.577l-.866.5-1-.577v-1.155l.866-.5v-11.69l-.866-.5V8.5l1-.577.866.5zm2 8 3.196 1.846 1.464-.846L17 8.887zm4.196 3.578v3.69l1.464.846v-5.382zm-1 5.422L17 21.423v1.69l4.66-2.69zM15 21.422l-3.196-1.845-1.464.846 4.66 2.69zm-4.196-3.577v-3.69l-1.464-.846v5.382zm1-5.422L15 10.578V8.887l-4.66 2.69zm11.856-2L17 6.577v-1.69l8.124 4.69zm1 9.422v-7.69l1.464-.846v9.382zM17 25.423l6.66-3.846 1.464.846L17 27.113zm-8.66-3.846L15 25.423v1.69l-8.124-4.69zm-1-9.422v7.69l-1.464.846v-9.382zM15 6.577l-6.66 3.846-1.464-.846L15 4.887zm-2.196 7.578L16 12.309l3.196 1.846v3.69L16 19.691l-3.196-1.846z" clip-rule="evenodd"/><path fill="#00BFB3" d="m16 14 1.732 1v2L16 18l-1.732-1v-2z"/></svg>
